X: 18733
T: Icy
R: jig
M: 6/8
K: Aminor
e3|a3e2d|cBc ABc|d3A2G|FEF DEF|
E3^G2B|efe dcB|1 A3-A3-|A3:|2 A3-A3-|A3||
a3|fef a^ga|d^cd fef|g^fg age|c3 e3|
^dBd ^fdf|b2b ag^f|e6-|e3a3|
fef a^ga|d^cd fef|g2^d ege|c3d2e|
f3a2f|efe dcB|A3-A3-|A3||

